X:10059
T:Maggie and Jiggs
C:Ward Allen
M:4/4
L:1/8
K:A
a>f|e2A2 c<A (3Bcd|e2A>B A2a>f|e2A2 c<AA>d|c2B>A B2a>f|
e2A2 c<AA2|d2f>e f<aa>f|e>fe>c B>ce>d|c2A2 A2:|
|:(3efg|a2e>d c<e (3efg|a2e2 e2 (3efg|a2e>d c<ee>f|=g2d>c d2 (3ef^g|
a2e>d c<e (3ABc|d2f>e f<aa>f|e>fe>c B>ce>d|c2A2 A2:|
